public/images/ico_data.svg

<svg height="24" viewBox="0 0 96 24" width="96" xmlns="http://www.w3.org/2000/svg"><g fill="none" fill-rule="evenodd"><g fill="#fff"><path d="m4.64685315 4.23703704v-1.23490371c0-.55709629.12253846-.83917037.9831958-.83917037h1.07974126v-2.07407407h-1.65034965c-2.06293706 0-2.88811189 1.38382222-2.88811189 2.9037037v1.24444445h-1.65034965v2.07407407h1.65034965v6.22222219h2.47552448v-6.22222219h1.81786014l.24507692-2.07407407z" transform="translate(32 6)"/><ellipse cx="12" cy="12" fill-opacity=".2" rx="12" ry="12"/><circle cx="36" cy="12" fill-opacity=".2" r="12"/><circle cx="60" cy="12" fill-opacity=".2" r="12"/><circle cx="84" cy="12" fill-opacity=".2" r="12"/><path d="m11.8892358 3.25664115c0 3.46456593-2.68662314 7.45964615-7.59962027 7.45964615-1.50817061 0-2.91180335-.434284-4.09392883-1.17833515.20851066.02468153.42097681.03688364.63683338.03688364 1.2513465 0 2.40324076-.41903139 3.31752327-1.12259368-1.16884634-.02079905-2.15545776-.7789935-2.49534709-1.82033225.1633051.03022794.33056568.04686717.50262936.04686717.24354497 0 .4794615-.03216918.70379411-.09207043-1.22196288-.24099158-2.14302624-1.30035617-2.14302624-2.57076172 0-.01109282 0-.02190832.00084761-.03272383.35966676.19634297.77188499.31392689 1.20953135.32779292-.71679071-.47033569-1.18805871-1.27262411-1.18805871-2.18251292 0-.48031923.13109613-.93041052.36136197-1.31782737 1.3171771 1.58627369 3.28559685 2.63010833 5.50547255 2.73937264-.04577064-.19190584-.06893849-.3921313-.06893849-.59762584 0-1.44789072 1.19568715-2.62151139 2.67080119-2.62151139.76821204 0 1.46239994.31836402 1.94977244.82780191.6085799-.11758392 1.1801477-.33555789 1.6963388-.63617339-.2000346.6120465-.6232717 1.12619885-1.1744971 1.45066392.5402065-.06350641 1.0552674-.20438526 1.5341638-.41293033-.3582541.52552248-.8111573.98753856-1.3332815 1.35692957.0056507.11259215.0076284.22573894.0076284.33944038z" transform="translate(5 7)"/><path d="m65.8333333 7h-11.6666666c-.6216 0-1.1666667.584-1.1666667 1.25v7.511c0 .66.5450667 1.239 1.1666667 1.239h11.6666666c.6216 0 1.1666667-.579 1.1666667-1.239v-7.511c0-.666-.5450667-1.25-1.1666667-1.25zm-8.5038333 6.208-2.1 1.5c-.0399.0285-.0849333.042-.1292667.042-.0753666 0-.1493333-.039-.1943666-.11125-.0714-.115-.0424667-.27025.0646333-.34675l2.1-1.5c.1073333-.077.252-.04575.3236333.06925.0714.115.0424667.27025-.0646333.34675zm7.7646333 1.43075c-.0450333.07225-.119.11125-.1943666.11125-.0443334 0-.0893667-.0135-.1292667-.042l-2.1-1.5c-.1071-.0765-.1360333-.23175-.0646333-.34675.0716333-.115.2163-.14625.3236333-.06925l2.1 1.5c.1071.0765.1360333.23175.0646333.34675zm-.0646333-4.68075-4.9 3.5c-.0392.028-.0844667.042-.1295.042s-.0903-.014-.1295-.042l-4.9-3.5c-.1071-.0765-.1360333-.23175-.0646333-.34675s.2160666-.14625.3236333-.06925l4.7705 3.4075 4.7705-3.4075c.1073333-.077.252-.04575.3236333.06925.0714.115.0424667.27025-.0646333.34675z"/></g><g transform="translate(77 5)"><path d="m0 0h14v14h-14z"/><path d="m9.33333333.58333333h-7c-.64166666 0-1.16666666.525-1.16666666 1.16666667v8.16666667h1.16666666v-8.16666667h7zm-4.66666666 2.33333334c-.64166667 0-1.16666667.525-1.16666667 1.16666666v8.16666667c0 .6416667.525 1.1666667 1.16666667 1.1666667h6.41666663c.6416667 0 1.1666667-.525 1.1666667-1.1666667v-8.16666667c0-.64166666-.525-1.16666666-1.1666667-1.16666666zm6.41666663 9.33333333h-6.41666663v-8.16666667h6.41666663z" fill="#fff"/></g></g></svg>

<?xml version="1.0" encoding="UTF-8" standalone="no"?>
<svg width="96px" height="24px" viewBox="0 0 96 24" version="1.1" xmlns="http://www.w3.org/2000/svg" xmlns:xlink="http://www.w3.org/1999/xlink" xmlns:sketch="http://www.bohemiancoding.com/sketch/ns">
    <!-- Generator: Sketch 3.2.2 (9983) - http://www.bohemiancoding.com/sketch -->
    <title>Group</title>
    <desc>Created with Sketch.</desc>
    <defs></defs>
    <g id="Desktop" stroke="none" stroke-width="1" fill="none" fill-rule="evenodd" sketch:type="MSPage">
        <g id="2---Secret-Data" sketch:type="MSArtboardGroup" transform="translate(-492.000000, -695.000000)">
            <g id="Card" sketch:type="MSLayerGroup" transform="translate(265.000000, 160.000000)">
                <g id="Group-3" transform="translate(61.000000, 545.000000)" sketch:type="MSShapeGroup">
                    <g id="Group" transform="translate(166.000000, -10.000000)">
                        <g id="fab-+-ic_content_copy_24px-+-Imported-Layers" transform="translate(32.000000, 6.000000)" fill="#FFFFFF">
                            <path d="M4.64685315,4.23703704 L4.64685315,3.00213333 C4.64685315,2.44503704 4.76939161,2.16296296 5.63004895,2.16296296 L6.70979021,2.16296296 L6.70979021,0.0888888889 L5.05944056,0.0888888889 C2.9965035,0.0888888889 2.17132867,1.47271111 2.17132867,2.99259259 L2.17132867,4.23703704 L0.520979021,4.23703704 L0.520979021,6.31111111 L2.17132867,6.31111111 L2.17132867,12.5333333 L4.64685315,12.5333333 L4.64685315,6.31111111 L6.46471329,6.31111111 L6.70979021,4.23703704 L4.64685315,4.23703704" id="Imported-Layers"></path>
                        </g>
                        <ellipse id="Oval-10" fill-opacity="0.2" fill="#FFFFFF" cx="12" cy="12" rx="12" ry="12"></ellipse>
                        <circle id="Oval-11" fill-opacity="0.2" fill="#FFFFFF" cx="36" cy="12" r="12"></circle>
                        <circle id="Oval-12" fill-opacity="0.2" fill="#FFFFFF" cx="60" cy="12" r="12"></circle>
                        <circle id="Oval-13" fill-opacity="0.2" fill="#FFFFFF" cx="84" cy="12" r="12"></circle>
                        <g id="Group-2" transform="translate(5.000000, 7.000000)" fill="#FFFFFF">
                            <g id="Twitter">
                                <path d="M11.8892358,3.25664115 C11.8892358,6.72120708 9.20261266,10.7162873 4.28961553,10.7162873 C2.78144492,10.7162873 1.37781218,10.2820033 0.195686702,9.53795215 C0.404197363,9.56263368 0.61666351,9.57483579 0.832520075,9.57483579 C2.08386658,9.57483579 3.23576084,9.1558044 4.15004335,8.45224211 C2.98119701,8.43144306 1.99458559,7.67324861 1.65469626,6.63190986 C1.81800136,6.6621378 1.98526194,6.67877703 2.15732562,6.67877703 C2.40087059,6.67877703 2.63678712,6.64660785 2.86111973,6.5867066 C1.63915685,6.34571502 0.718093493,5.28635043 0.718093493,4.01594488 C0.718093493,4.00485206 0.718093493,3.99403656 0.718941097,3.98322105 C1.07860786,4.17956402 1.49082609,4.29714794 1.92847245,4.31101397 C1.21168174,3.84067828 0.74041374,3.03838986 0.74041374,2.12850105 C0.74041374,1.64818182 0.871509874,1.19809053 1.10177571,0.810673684 C2.41895281,2.39694737 4.38737256,3.44078201 6.60724826,3.55004632 C6.56147762,3.35814048 6.53830977,3.15791502 6.53830977,2.95242048 C6.53830977,1.50452976 7.73399692,0.330909091 9.20911096,0.330909091 C9.977323,0.330909091 10.6715109,0.64927311 11.1588834,1.158711 C11.7674633,1.04112708 12.3390311,0.82315311 12.8552222,0.522537608 C12.6551876,1.13458411 12.2319505,1.64873646 11.6807251,1.97320153 C12.2209316,1.90969512 12.7359925,1.76881627 13.2148889,1.5602712 C12.8566348,2.08579368 12.4037316,2.54780976 11.8816074,2.91720077 C11.8872581,3.02979292 11.8892358,3.14293971 11.8892358,3.25664115 Z" id="Imported-Layers-2"></path>
                            </g>
                        </g>
                        <path d="M65.8333333,7 L54.1666667,7 C53.5450667,7 53,7.584 53,8.25 L53,15.761 C53,16.421 53.5450667,17 54.1666667,17 L65.8333333,17 C66.4549333,17 67,16.421 67,15.761 L67,8.25 C67,7.584 66.4549333,7 65.8333333,7 L65.8333333,7 Z M57.3295,13.208 L55.2295,14.708 C55.1896,14.7365 55.1445667,14.75 55.1002333,14.75 C55.0248667,14.75 54.9509,14.711 54.9058667,14.63875 C54.8344667,14.52375 54.8634,14.3685 54.9705,14.292 L57.0705,12.792 C57.1778333,12.715 57.3225,12.74625 57.3941333,12.86125 C57.4655333,12.97625 57.4366,13.1315 57.3295,13.208 L57.3295,13.208 Z M65.0941333,14.63875 C65.0491,14.711 64.9751333,14.75 64.8997667,14.75 C64.8554333,14.75 64.8104,14.7365 64.7705,14.708 L62.6705,13.208 C62.5634,13.1315 62.5344667,12.97625 62.6058667,12.86125 C62.6775,12.74625 62.8221667,12.715 62.9295,12.792 L65.0295,14.292 C65.1366,14.3685 65.1655333,14.52375 65.0941333,14.63875 L65.0941333,14.63875 Z M65.0295,9.958 L60.1295,13.458 C60.0903,13.486 60.0450333,13.5 60,13.5 C59.9549667,13.5 59.9097,13.486 59.8705,13.458 L54.9705,9.958 C54.8634,9.8815 54.8344667,9.72625 54.9058667,9.61125 C54.9772667,9.49625 55.1219333,9.465 55.2295,9.542 L60,12.9495 L64.7705,9.542 C64.8778333,9.465 65.0225,9.49625 65.0941333,9.61125 C65.1655333,9.72625 65.1366,9.8815 65.0295,9.958 L65.0295,9.958 Z" id="Imported-Layers" fill="#FFFFFF"></path>
                        <g id="ic_content_copy_24px" transform="translate(77.000000, 5.000000)">
                            <path d="M0,0 L14,0 L14,14 L0,14 L0,0 Z" id="Shape"></path>
                            <path d="M9.33333333,0.583333333 L2.33333333,0.583333333 C1.69166667,0.583333333 1.16666667,1.10833333 1.16666667,1.75 L1.16666667,9.91666667 L2.33333333,9.91666667 L2.33333333,1.75 L9.33333333,1.75 L9.33333333,0.583333333 L9.33333333,0.583333333 Z M4.66666667,2.91666667 C4.025,2.91666667 3.5,3.44166667 3.5,4.08333333 L3.5,12.25 C3.5,12.8916667 4.025,13.4166667 4.66666667,13.4166667 L11.0833333,13.4166667 C11.725,13.4166667 12.25,12.8916667 12.25,12.25 L12.25,4.08333333 C12.25,3.44166667 11.725,2.91666667 11.0833333,2.91666667 L4.66666667,2.91666667 Z M11.0833333,12.25 L4.66666667,12.25 L4.66666667,4.08333333 L11.0833333,4.08333333 L11.0833333,12.25 L11.0833333,12.25 Z" id="Shape" fill="#FFFFFF"></path>
                        </g>
                    </g>
                </g>
            </g>
        </g>
    </g>
</svg>
